assets/efishery/sampan-fill.svg

<svg width="24" height="25" viewBox="0 0 24 25" fill="none" xmlns="http://www.w3.org/2000/svg">
<path fill-rule="evenodd" clip-rule="evenodd" d="M15.4413 10.6895C15.8101 10.0637 16.4406 9.31693 17.414 8.82274C18.5315 8.25538 20.1656 7.98817 22.5 8.71377V14.4395C22.5 14.4714 22.506 14.502 22.517 14.5302C22.4236 14.5738 22.331 14.6274 22.2418 14.6898C21.9995 14.8595 21.8364 15.091 21.7463 15.3027C21.7075 15.3938 21.68 15.4864 21.667 15.5741L21.0637 15.5653C20.9775 15.564 20.9012 15.6117 20.8652 15.6893C20.8292 15.7669 20.8393 15.8619 20.8914 15.9364L21.4572 16.7444C21.5094 16.8189 21.5952 16.8609 21.6804 16.8536C21.7657 16.8463 21.8366 16.7909 21.8648 16.7095L22.0629 16.1395C22.1497 16.1573 22.2462 16.1632 22.3451 16.1579C22.5748 16.1456 22.8482 16.0715 23.0904 15.9019C23.3191 15.7418 23.5005 15.5406 23.6035 15.3345C23.6995 15.1423 23.759 14.8723 23.5984 14.643C23.4501 14.4311 23.2049 14.3839 23 14.3973V8.88077L23.0793 8.90931C23.3388 9.00368 23.6257 8.86981 23.72 8.61029C23.8144 8.35077 23.6805 8.06389 23.421 7.96952C20.5674 6.93184 18.4618 7.16925 16.9613 7.93108C15.505 8.67042 14.6899 9.86748 14.3144 10.6895H11.5V10.3966L12.68 9.2166L12.8589 9.38338C13.0608 9.57171 13.3772 9.56066 13.5656 9.3587C13.7539 9.15675 13.7428 8.84036 13.5409 8.65203L12.3989 7.58709C12.1969 7.39876 11.8805 7.40981 11.6922 7.61177C11.5039 7.81373 11.5149 8.13012 11.7169 8.31845L11.9482 8.53419L11.4063 9.07612C11.2784 8.84553 11.0324 8.68945 10.75 8.68945H1.75002C1.44668 8.68945 1.1732 8.87218 1.05711 9.15244C0.941027 9.4327 1.00519 9.75529 1.21969 9.96978L3.2033 11.9534L7.60794 16.9362C7.75031 17.0972 7.95492 17.1895 8.16987 17.1895H19.492C19.8358 17.1895 20.1355 16.9558 20.2194 16.6225L21.4774 11.6225C21.5338 11.3983 21.4837 11.1606 21.3415 10.9783C21.1994 10.796 20.9812 10.6895 20.75 10.6895H15.4413ZM6.07699 12.9395L6.96096 13.9395H19.3477L19.5993 12.9395H6.07699ZM22.9683 14.9337C22.9293 14.8779 22.9393 14.8035 22.9908 14.7674C23.0423 14.7314 23.1157 14.7474 23.1548 14.8032C23.1938 14.8589 23.1838 14.9334 23.1323 14.9694C23.0808 15.0055 23.0074 14.9895 22.9683 14.9337Z" fill="#1D1D1D"/>
</svg>

<svg viewBox="0 0 24 25" xmlns="http://www.w3.org/2000/svg">
  <path fill-rule="evenodd" clip-rule="evenodd" d="M15.441 10.69c.37-.626 1-1.373 1.973-1.867 1.117-.568 2.752-.835 5.086-.11v5.727a.25.25 0 0 0 .017.09 1.84 1.84 0 0 0-.275.16c-.242.17-.406.401-.496.613a1.123 1.123 0 0 0-.079.271l-.603-.009a.213.213 0 0 0-.199.124.25.25 0 0 0 .026.247l.566.808a.25.25 0 0 0 .223.11.213.213 0 0 0 .185-.145l.198-.57c.087.018.183.024.282.019.23-.012.503-.087.745-.256.23-.16.41-.361.514-.567.096-.193.155-.463-.006-.692-.148-.212-.393-.26-.598-.246V8.881l.08.028a.5.5 0 1 0 .341-.94c-2.854-1.037-4.96-.8-6.46-.038a5.876 5.876 0 0 0-2.647 2.759H11.5v-.293l1.18-1.18.179.166a.5.5 0 0 0 .682-.731l-1.142-1.065a.5.5 0 0 0-.682.731l.231.216-.542.542a.75.75 0 0 0-.656-.387h-9a.75.75 0 0 0-.53 1.28l1.983 1.984 4.405 4.983a.75.75 0 0 0 .562.253h11.322a.75.75 0 0 0 .727-.567l1.258-5a.75.75 0 0 0-.727-.932h-5.309zm-9.364 2.25.884 1h12.387l.251-1H6.077zm16.891 1.994c-.039-.056-.029-.13.023-.167.051-.036.125-.02.164.036.039.056.029.13-.023.166-.051.037-.125.02-.164-.035z"/>
</svg>
